jsapp/svg-icons/link-anyone.svg

<?xml version="1.0" encoding="UTF-8"?>
<svg width="40px" height="40px" viewBox="0 0 40 40" version="1.1" xmlns="http://www.w3.org/2000/svg" xmlns:xlink="http://www.w3.org/1999/xlink">
    <!-- Generator: Sketch 50.2 (55047) - http://www.bohemiancoding.com/sketch -->
    <title>Icons/link-anyone</title>
    <desc>Created with Sketch.</desc>
    <defs>
        <path d="M16.0003,17.7772 C17.1033,17.7772 18.0003,18.6732 18.0003,19.7772 C18.0003,20.8802 17.1033,21.7772 16.0003,21.7772 C14.8973,21.7772 14.0003,20.8802 14.0003,19.7772 C14.0003,18.6732 14.8973,17.7772 16.0003,17.7772 M16.0003,23.7772 C18.2063,23.7772 20.0003,21.9832 20.0003,19.7772 C20.0003,17.5712 18.2063,15.7772 16.0003,15.7772 C13.7943,15.7772 12.0003,17.5712 12.0003,19.7772 C12.0003,21.9832 13.7943,23.7772 16.0003,23.7772 M10.159,29.7772 C10.757,27.9692 12.992,26.7772 16,26.7772 C19.008,26.7772 21.244,27.9692 21.842,29.7772 L10.159,29.7772 Z M16,24.7772 C11.29,24.7772 8,27.2442 8,30.7772 L8,31.7772 L24,31.7772 L24,30.7772 C24,27.2442 20.711,24.7772 16,24.7772 L16,24.7772 Z M21.9046,15.3905 L22.9651,14.3295 L22.7886,14.153 C22.7246,14.089 22.7151,14.0145 22.7151,13.9755 C22.7151,13.9375 22.7246,13.863 22.7886,13.799 L27.0311,9.5565 C27.0946,9.493 27.1691,9.4835 27.2076,9.4835 C27.2466,9.4835 27.3211,9.493 27.3846,9.5565 L27.5616,9.7335 L28.6221,8.6725 L28.4456,8.496 C27.7841,7.8345 26.6311,7.835 25.9706,8.4955 L21.7281,12.7385 C21.3971,13.0685 21.2151,13.508 21.2151,13.9755 C21.2151,14.443 21.3971,14.8825 21.7281,15.2135 L21.9046,15.3905 Z M31.09675,11.14755 L30.03625,12.20805 L30.21325,12.38555 C30.31025,12.48255 30.31025,12.64105 30.21325,12.73855 L25.97025,16.98105 C25.90675,17.04505 25.83225,17.05455 25.79375,17.05455 C25.75475,17.05455 25.68075,17.04505 25.61675,16.98105 L25.43975,16.80455 L24.37925,17.86555 L24.55625,18.04205 C24.88675,18.37255 25.32625,18.55455 25.79375,18.55455 C26.26125,18.55455 26.70025,18.37255 27.03125,18.04205 L31.27375,13.79905 C31.95575,13.11605 31.95575,12.00655 31.27375,11.32455 L31.09675,11.14755 Z M27.7381,13.09215 L26.6776,12.03115 L30.2131,8.49565 L31.2736,9.55665 L27.7381,13.09215 Z M22.7884,18.04185 L21.7279,16.98135 L25.2634,13.44585 L26.3239,14.50635 L22.7884,18.04185 Z" id="path-1"></path>
    </defs>
    <g id="Icons/link-anyone" stroke="none" stroke-width="1" fill="none" fill-rule="evenodd">
        <mask id="mask-2" fill="white">
            <use xlink:href="#path-1"></use>
        </mask>
        <use id="Mask" fill="#000000" xlink:href="#path-1"></use>
    </g>
</svg>

<svg height="40" viewBox="0 0 40 40" width="40" xmlns="http://www.w3.org/2000/svg"><path d="m16.0003 17.7772c1.103 0 2 .896 2 2 0 1.103-.897 2-2 2s-2-.897-2-2c0-1.104.897-2 2-2m0 6c2.206 0 4-1.794 4-4s-1.794-4-4-4-4 1.794-4 4 1.794 4 4 4m-5.8413 6c.598-1.808 2.833-3 5.841-3s5.244 1.192 5.842 3zm5.841-5c-4.71 0-8 2.467-8 6v1h16v-1c0-3.533-3.289-6-8-6zm5.9046-9.3867 1.0605-1.061-.1765-.1765c-.064-.064-.0735-.1385-.0735-.1775 0-.038.0095-.1125.0735-.1765l4.2425-4.2425c.0635-.0635.138-.073.1765-.073.039 0 .1135.0095.177.073l.177.177 1.0605-1.061-.1765-.1765c-.6615-.6615-1.8145-.661-2.475-.0005l-4.2425 4.243c-.331.33-.513.7695-.513 1.237s.182.907.513 1.238zm9.19215-4.24295-1.0605 1.0605.177.1775c.097.097.097.2555 0 .353l-4.243 4.2425c-.0635.064-.138.0735-.1765.0735-.039 0-.113-.0095-.177-.0735l-.177-.1765-1.0605 1.061.177.1765c.3305.3305.77.5125 1.2375.5125s.9065-.182 1.2375-.5125l4.2425-4.243c.682-.683.682-1.7925 0-2.4745zm-3.35865 1.9446-1.0605-1.061 3.5355-3.5355 1.0605 1.061zm-4.9497 4.9497-1.0605-1.0605 3.5355-3.5355 1.0605 1.0605z" fill-rule="evenodd"/></svg>
